azure-patterns/nosql-columnar.svg

<svg xmlns="http://www.w3.org/2000/svg" viewBox="0 0 48 49"><path d="M23.764 17.266H3.47v2.526h20.295v-2.526z" fill="#50E6FF"/><path d="M44.017 22.369a3.84 3.84 0 100-7.68 3.84 3.84 0 000 7.68zM34.072 22.369a3.84 3.84 0 100-7.68 3.84 3.84 0 000 7.68zM23.95 22.369a3.84 3.84 0 100-7.68 3.84 3.84 0 000 7.68zM3.941 22.369a3.84 3.84 0 100-7.68 3.84 3.84 0 000 7.68z" fill="#0078D4"/><path d="M23.764 29.771H3.47v2.526h20.295v-2.526z" fill="#50E6FF"/><path d="M44.017 34.874a3.84 3.84 0 100-7.68 3.84 3.84 0 000 7.68zM34.072 34.874a3.84 3.84 0 100-7.68 3.84 3.84 0 000 7.68zM23.95 34.874a3.84 3.84 0 100-7.68 3.84 3.84 0 000 7.68zM3.941 34.874a3.84 3.84 0 100-7.68 3.84 3.84 0 000 7.68z" fill="#0078D4"/><path d="M23.764 42.47H3.47v2.526h20.295V42.47z" fill="#50E6FF"/><path d="M44.017 47.573a3.84 3.84 0 100-7.68 3.84 3.84 0 000 7.68zM34.072 47.573a3.84 3.84 0 100-7.68 3.84 3.84 0 000 7.68zM23.95 47.573a3.84 3.84 0 100-7.68 3.84 3.84 0 000 7.68zM3.941 47.573a3.84 3.84 0 100-7.68 3.84 3.84 0 000 7.68z" fill="#0078D4"/><path d="M23.764 4.525H3.47V7.05h20.295V4.525z" fill="#50E6FF"/><path d="M44.017 9.628a3.84 3.84 0 100-7.68 3.84 3.84 0 000 7.68zM34.072 9.628a3.84 3.84 0 100-7.68 3.84 3.84 0 000 7.68zM23.95 9.628a3.84 3.84 0 100-7.68 3.84 3.84 0 000 7.68zM3.941 9.628a3.84 3.84 0 100-7.68 3.84 3.84 0 000 7.68z" fill="#0078D4"/></svg>

<svg xmlns="http://www.w3.org/2000/svg" viewBox="0 0 48 49"><path d="M23.764 17.266H3.47v2.526h20.295v-2.526z" fill="#50E6FF"/><path d="M44.017 22.369a3.84 3.84 0 100-7.68 3.84 3.84 0 000 7.68zm-9.945 0a3.84 3.84 0 100-7.68 3.84 3.84 0 000 7.68zm-10.122 0a3.84 3.84 0 100-7.68 3.84 3.84 0 000 7.68zm-20.009 0a3.84 3.84 0 100-7.68 3.84 3.84 0 000 7.68z" fill="#0078D4"/><path d="M23.764 29.771H3.47v2.526h20.295v-2.526z" fill="#50E6FF"/><path d="M44.017 34.874a3.84 3.84 0 100-7.68 3.84 3.84 0 000 7.68zm-9.945 0a3.84 3.84 0 100-7.68 3.84 3.84 0 000 7.68zm-10.122 0a3.84 3.84 0 100-7.68 3.84 3.84 0 000 7.68zm-20.009 0a3.84 3.84 0 100-7.68 3.84 3.84 0 000 7.68z" fill="#0078D4"/><path d="M23.764 42.47H3.47v2.526h20.295V42.47z" fill="#50E6FF"/><path d="M44.017 47.573a3.84 3.84 0 100-7.68 3.84 3.84 0 000 7.68zm-9.945 0a3.84 3.84 0 100-7.68 3.84 3.84 0 000 7.68zm-10.122 0a3.84 3.84 0 100-7.68 3.84 3.84 0 000 7.68zm-20.009 0a3.84 3.84 0 100-7.68 3.84 3.84 0 000 7.68z" fill="#0078D4"/><path d="M23.764 4.525H3.47V7.05h20.295V4.525z" fill="#50E6FF"/><path d="M44.017 9.628a3.84 3.84 0 100-7.68 3.84 3.84 0 000 7.68zm-9.945 0a3.84 3.84 0 100-7.68 3.84 3.84 0 000 7.68zm-10.122 0a3.84 3.84 0 100-7.68 3.84 3.84 0 000 7.68zm-20.009 0a3.84 3.84 0 100-7.68 3.84 3.84 0 000 7.68z" fill="#0078D4"/></svg>
